X:1
T:D major Sinfonia subject as "contrapuntal line"
T:J. S. Bach
T:BWV 789
%%score { 1 2 } { 3 | 4 }
L:1/8
M:4/4
K:D
V:1 treble nm=" " snm=" "
V:2 treble nm="Oboe"
V:3 treble nm="Cembalo" snm="Cbl."
V:4 bass 
V:1
 a/g/f/g/ a2 g/f/e/f/ g2 | f/e/d/e/ f2 e/f/e/d/ c2 | d4 c2 z2 | %3
!pp! a/g/!fff!f/g/ (a!pp!a) g/f/!fff!e/f/ (g!pp!g) | %4
 f/e/!fff!d/e/ (f!pp!f) e/!fff!f/e/d/ (c/!pp!c/-)c | d4 c2 z2 | z8 | z8 | z8 | z8 | z8 | z8 |] %12
V:2
 d3 =c B3 B | A3 A G^G A/B/A/=G/ | F/E/D/E/ F/E/F/^G/ A2 z2 |!pp! d3!fff! =c (B!pp! B2)!fff! B | %4
 (A!pp! A2)!fff! A (G/!pp!G/)^G A/!fff!B/A/=G/ | F/E/D/E/ F/E/F/^G/ A2 z2 | z8 | z8 | z8 | z8 | %10
 z8 | z8 |] %12
V:3
 z8 | z8 | z8 | z8 | z8 | z8 |!f! z f/g/ a z z e/f/ g z | z d/e/ f z z/ f/e/d/ c/ z/ z | z8 | %9
 z f/g/ .a.=c Be/f/ .g.B | Ad/e/ .f.A G/f/e/d/ c/b/a/g/ | f/e/d/e/ f/e/f/^g/ a2 z2 |] %12
V:4
 z8 | z8 | z8 | z8 | z8 | z8 |[K:treble] z2 z =c B z z B | A z z A G/ z/ z z/ b/a/g/ | %8
 f/e/d/e/ f/e/f/^g/ a2 z2 | z8 | z8 | z8 |] %12

